speaky-school/img/figures3.svg

<svg width="394" height="302" viewBox="0 0 394 302" fill="none" xmlns="http://www.w3.org/2000/svg">
<path d="M193.013 281.233C199.554 287.817 207.319 293.04 215.865 296.603C224.41 300.166 233.57 302 242.82 302C252.07 302 261.229 300.166 269.775 296.603C278.321 293.04 286.085 287.817 292.626 281.233C295.436 278.404 297.997 275.348 300.285 272.099L283.454 272C278.117 277.371 271.783 281.632 264.811 284.539C257.839 287.446 250.366 288.942 242.82 288.942C235.273 288.942 227.801 287.446 220.829 284.539C213.857 281.632 207.522 277.371 202.186 272H185.285C187.59 275.286 190.174 278.375 193.013 281.233Z" fill="#236967"/>
<path d="M80.0762 21.824C86.4781 15.3798 94.0777 10.2686 102.441 6.78159C110.804 3.2946 119.767 1.5 128.819 1.5C137.87 1.5 146.833 3.2946 155.197 6.78159C163.56 10.2686 171.159 15.3798 177.561 21.824C179.625 23.9014 181.551 26.1043 183.33 28.418L170.068 28.4963C164.688 23.1953 158.347 18.9785 151.387 16.0764C144.232 13.0933 136.563 11.5577 128.819 11.5577C121.074 11.5577 113.405 13.0933 106.25 16.0764C99.2885 18.9792 92.9462 23.1972 87.5652 28.5L74.244 28.5C76.0406 26.1564 77.988 23.926 80.0762 21.824Z" stroke="#FFECA0" stroke-width="3"/>
<rect x="343.998" y="183" width="50" height="50" rx="25" fill="#FE7167"/>
<rect x="343.998" y="130" width="50" height="50" rx="25" fill="#FE7167"/>
<rect x="343.998" y="77" width="50" height="50" rx="25" fill="#FE7167"/>
<rect x="-1.92257" y="0.896509" width="197" height="7" rx="3.5" transform="matrix(-0.939693 -0.34202 -0.34202 0.939693 187.936 232.003)" stroke="black" stroke-width="3"/>
<rect x="-1.92257" y="0.896509" width="197" height="7" rx="3.5" transform="matrix(-0.939693 -0.34202 -0.34202 0.939693 187.936 253.804)" stroke="black" stroke-width="3"/>
<rect x="-1.92257" y="0.896509" width="197" height="7" rx="3.5" transform="matrix(-0.939693 -0.34202 -0.34202 0.939693 187.936 210.203)" stroke="black" stroke-width="3"/>
<rect x="-1.92257" y="0.896509" width="197" height="7" rx="3.5" transform="matrix(-0.939693 -0.34202 -0.34202 0.939693 187.936 166.601)" stroke="black" stroke-width="3"/>
<rect x="-1.92257" y="0.896509" width="197" height="7" rx="3.5" transform="matrix(-0.939693 -0.34202 -0.34202 0.939693 187.936 188.402)" stroke="black" stroke-width="3"/>
<rect x="-1.92257" y="0.896509" width="197" height="7" rx="3.5" transform="matrix(-0.939693 -0.34202 -0.34202 0.939693 187.936 144.8)" stroke="black" stroke-width="3"/>
</svg>

<svg width="394" height="302" fill="none" xmlns="http://www.w3.org/2000/svg"><path d="M193.013 281.233a70.408 70.408 0 0 0 22.852 15.37A70.035 70.035 0 0 0 242.82 302a70.04 70.04 0 0 0 26.955-5.397 70.404 70.404 0 0 0 22.851-15.37 70.833 70.833 0 0 0 7.659-9.134L283.454 272a57.457 57.457 0 0 1-18.643 12.539 57.14 57.14 0 0 1-21.991 4.403 57.135 57.135 0 0 1-21.991-4.403A57.446 57.446 0 0 1 202.186 272h-16.901a70.756 70.756 0 0 0 7.728 9.233z" fill="#236967"/><path d="M80.076 21.824a68.907 68.907 0 0 1 22.365-15.042A68.535 68.535 0 0 1 128.819 1.5a68.542 68.542 0 0 1 26.378 5.282 68.908 68.908 0 0 1 22.364 15.042 69.208 69.208 0 0 1 5.769 6.594l-13.262.078a58.936 58.936 0 0 0-18.681-12.42 58.642 58.642 0 0 0-22.568-4.518 58.643 58.643 0 0 0-22.569 4.518A58.94 58.94 0 0 0 87.565 28.5H74.244a69.267 69.267 0 0 1 5.832-6.676z" stroke="#FFECA0" stroke-width="3"/><rect x="343.998" y="183" width="50" height="50" rx="25" fill="#FE7167"/><rect x="343.998" y="130" width="50" height="50" rx="25" fill="#FE7167"/><rect x="343.998" y="77" width="50" height="50" rx="25" fill="#FE7167"/><rect x="-1.923" y=".897" width="197" height="7" rx="3.5" transform="scale(-1 1) rotate(-20 563.91 648.92)" stroke="#000" stroke-width="3"/><rect x="-1.923" y=".897" width="197" height="7" rx="3.5" transform="scale(-1 1) rotate(-20 625.73 659.821)" stroke="#000" stroke-width="3"/><rect x="-1.923" y=".897" width="197" height="7" rx="3.5" transform="scale(-1 1) rotate(-20 502.093 638.02)" stroke="#000" stroke-width="3"/><rect x="-1.923" y=".897" width="197" height="7" rx="3.5" transform="scale(-1 1) rotate(-20 378.453 616.22)" stroke="#000" stroke-width="3"/><rect x="-1.923" y=".897" width="197" height="7" rx="3.5" transform="scale(-1 1) rotate(-20 440.273 627.12)" stroke="#000" stroke-width="3"/><rect x="-1.923" y=".897" width="197" height="7" rx="3.5" transform="scale(-1 1) rotate(-20 316.633 605.32)" stroke="#000" stroke-width="3"/></svg>
